report_00007_2020-12-11T15:55:29.892Z/speed-index/samples/pages+cached+noexternal+nosvg/score/values.svg

<svg width="640" height="490" xmlns="http://www.w3.org/2000/svg" xmlns:xlink="http://www.w3.org/1999/xlink"><path fill="#fff" d="M0 0h640v490H0z"/><defs><path id="d" stroke-width=".222" stroke="currentColor" d="M-1-1h2v2h-2z"/><path id="b" stroke-width=".222" stroke="currentColor" d="M0-1.33l-1.33 2h2.66z"/><path id="f" stroke-width=".222" stroke="currentColor" d="M0 1.33L1.265.411.782-1.067l-1.564-.009-.483 1.487z"/><use xlink:href="#b" id="c" stroke="currentColor" transform="rotate(180)"/><use xlink:href="#d" id="e" stroke="currentColor" transform="rotate(45)"/><circle id="a" stroke-width=".222" stroke="currentColor" cx="0" cy="0" r="1"/></defs><g fill="none" color="#000" stroke="currentColor"><path stroke="#000" d="M70.5 425.8h9m535.5 0h-9"/><text transform="translate(62.2 429.7)" stroke="none" fill="#000" font-family="Arial" font-size="12" text-anchor="end"><tspan>0.966</tspan></text></g><g fill="none" color="#000" stroke="currentColor"><path stroke="#000" d="M70.5 354.6h9m535.5 0h-9"/><text transform="translate(62.2 358.5)" stroke="none" fill="#000" font-family="Arial" font-size="12" text-anchor="end"><tspan>0.968</tspan></text></g><g fill="none" color="#000" stroke="currentColor"><path stroke="#000" d="M70.5 283.4h9m535.5 0h-9"/><text transform="translate(62.2 287.3)" stroke="none" fill="#000" font-family="Arial" font-size="12" text-anchor="end"><tspan>0.97</tspan></text></g><g fill="none" color="#000" stroke="currentColor"><path stroke="#000" d="M70.5 212.2h9m535.5 0h-9"/><text transform="translate(62.2 216.1)" stroke="none" fill="#000" font-family="Arial" font-size="12" text-anchor="end"><tspan>0.972</tspan></text></g><g fill="none" color="#000" stroke="currentColor"><path stroke="#000" d="M70.5 141h9m535.5 0h-9"/><text transform="translate(62.2 144.9)" stroke="none" fill="#000" font-family="Arial" font-size="12" text-anchor="end"><tspan>0.974</tspan></text></g><g fill="none" color="#000" stroke="currentColor"><path stroke="#000" d="M70.5 69.8h9m535.5 0h-9"/><text transform="translate(62.2 73.7)" stroke="none" fill="#000" font-family="Arial" font-size="12" text-anchor="end"><tspan>0.976</tspan></text></g><g fill="none" color="#000" stroke="currentColor"><path stroke="#000" d="M70.5 436v-9m0-408.9v9"/><text transform="translate(70.5 457.9)" stroke="none" fill="#000" font-family="Arial" font-size="12" text-anchor="middle"><tspan>0</tspan></text></g><g fill="none" color="#000" stroke="currentColor"><path stroke="#000" d="M125.5 436v-9m0-408.9v9"/><text transform="translate(125.5 457.9)" stroke="none" fill="#000" font-family="Arial" font-size="12" text-anchor="middle"><tspan>10</tspan></text></g><g fill="none" color="#000" stroke="currentColor"><path stroke="#000" d="M180.5 436v-9m0-408.9v9"/><text transform="translate(180.5 457.9)" stroke="none" fill="#000" font-family="Arial" font-size="12" text-anchor="middle"><tspan>20</tspan></text></g><g fill="none" color="#000" stroke="currentColor"><path stroke="#000" d="M235.5 436v-9m0-408.9v9"/><text transform="translate(235.5 457.9)" stroke="none" fill="#000" font-family="Arial" font-size="12" text-anchor="middle"><tspan>30</tspan></text></g><g fill="none" color="#000" stroke="currentColor"><path stroke="#000" d="M290.5 436v-9m0-408.9v9"/><text transform="translate(290.5 457.9)" stroke="none" fill="#000" font-family="Arial" font-size="12" text-anchor="middle"><tspan>40</tspan></text></g><g fill="none" color="#000" stroke="currentColor"><path stroke="#000" d="M345.5 436v-9m0-408.9v9"/><text transform="translate(345.5 457.9)" stroke="none" fill="#000" font-family="Arial" font-size="12" text-anchor="middle"><tspan>50</tspan></text></g><g fill="none" color="#000" stroke="currentColor"><path stroke="#000" d="M400.5 436v-9m0-408.9v9"/><text transform="translate(400.5 457.9)" stroke="none" fill="#000" font-family="Arial" font-size="12" text-anchor="middle"><tspan>60</tspan></text></g><g fill="none" color="#000" stroke="currentColor"><path stroke="#000" d="M455.5 436v-9m0-408.9v9"/><text transform="translate(455.5 457.9)" stroke="none" fill="#000" font-family="Arial" font-size="12" text-anchor="middle"><tspan>70</tspan></text></g><g fill="none" color="#000" stroke="currentColor"><path stroke="#000" d="M510.5 436v-9m0-408.9v9"/><text transform="translate(510.5 457.9)" stroke="none" fill="#000" font-family="Arial" font-size="12" text-anchor="middle"><tspan>80</tspan></text></g><g fill="none" color="#000" stroke="currentColor"><path stroke="#000" d="M565.5 436v-9m0-408.9v9"/><text transform="translate(565.5 457.9)" stroke="none" fill="#000" font-family="Arial" font-size="12" text-anchor="middle"><tspan>90</tspan></text></g><path stroke="#000" d="M70.5 18.1V436H615V18.1H70.5z" fill="none" color="#000"/><text transform="translate(334.1 475.9)" stroke="none" fill="#000" font-family="Arial" font-size="12" text-anchor="end" color="#000"><tspan>score</tspan></text><path stroke="#9400D3" d="M342.4 472h42.2M70.5 90.7l5.5-21 5.5 56 5.5-13 5.5-39 5.5 48.2 5.5-25.7 5.5 57.4 5.5-33.8 5.5-23.1 5.5.6 5.5 144.9 5.5 153.5 5.5-320 5.5 47.3 5.5-14.3 5.5 18.9 5.5-50.4 5.5 24L175 362l5.5-224.7 5.5-51.6 5.5-11.8 5.5 19.5 5.5-20 5.5 38.7 5.5 14.4 5.5-29.4 5.5 61.9L230 53.7l5.5 42 5.5 38.1 5.5-49 5.5 2.1 5.5-3.6 5.5 287.9 5.5-4.8 5.5-243 5.5-49.3 5.5 38.1 5.5 16.9 5.5-8.2 5.5 46.1 5.5-39 5.5-15.8 5.5 60.3 5.5-29.5 5.5 8.1 5.5-36.3 5.5 19 5.5 266.6 5.5-283.5 5.5-27.1 5.5 15.1 5.5-5.5 5.5-18.2 5.5-6.3 5.5 41.4 5.5 17.4 5.5-45.1 5.5 61.9 5.5-38.6 5.5-26.7 5.5 34 5.5-2.2 5.5-37 5.5-9.6 5.5 303.4 5.5-269.7 5.5 80 5.5-99.6 5.5 23.1 5.5 7.2 5.5 10 5.5-50.9 5.5 10.2 5.5-20.3 5.5 58.3 5.5-13.6 5.5 6.1 5.5-6.4 5.5-41.9 5.5 91.1 5.5-12.1 5.5-20.2 5.5-.8 5.5-22.7 5.5-20.9 5.5 21.7 5.5 57.4 5.5-4.5 5.5-76 5.5 13 5.5 29.2 5.5-14.5 5.5-8.3 5.5 53.5 5.5-53.6 5.5 5.4 5.5-4.4" fill="none" color="#000"/><g fill="none" color="#000" stroke="currentColor"><path stroke="#000" d="M70.5 18.1V436H615V18.1H70.5z"/></g></svg>

<?xml version="1.0" encoding="utf-8"  standalone="no"?>
<svg 
 width="640" height="490"
 viewBox="0 0 640 490"
 xmlns="http://www.w3.org/2000/svg"
 xmlns:xlink="http://www.w3.org/1999/xlink"
>

<title>Gnuplot</title>
<desc>Produced by GNUPLOT 5.4 patchlevel 0 </desc>

<g id="gnuplot_canvas">

<rect x="0" y="0" width="640" height="490" fill="#ffffff"/>
<defs>

	<circle id='gpDot' r='0.5' stroke-width='0.5' stroke='currentColor'/>
	<path id='gpPt0' stroke-width='0.222' stroke='currentColor' d='M-1,0 h2 M0,-1 v2'/>
	<path id='gpPt1' stroke-width='0.222' stroke='currentColor' d='M-1,-1 L1,1 M1,-1 L-1,1'/>
	<path id='gpPt2' stroke-width='0.222' stroke='currentColor' d='M-1,0 L1,0 M0,-1 L0,1 M-1,-1 L1,1 M-1,1 L1,-1'/>
	<rect id='gpPt3' stroke-width='0.222' stroke='currentColor' x='-1' y='-1' width='2' height='2'/>
	<rect id='gpPt4' stroke-width='0.222' stroke='currentColor' fill='currentColor' x='-1' y='-1' width='2' height='2'/>
	<circle id='gpPt5' stroke-width='0.222' stroke='currentColor' cx='0' cy='0' r='1'/>
	<use xlink:href='#gpPt5' id='gpPt6' fill='currentColor' stroke='none'/>
	<path id='gpPt7' stroke-width='0.222' stroke='currentColor' d='M0,-1.33 L-1.33,0.67 L1.33,0.67 z'/>
	<use xlink:href='#gpPt7' id='gpPt8' fill='currentColor' stroke='none'/>
	<use xlink:href='#gpPt7' id='gpPt9' stroke='currentColor' transform='rotate(180)'/>
	<use xlink:href='#gpPt9' id='gpPt10' fill='currentColor' stroke='none'/>
	<use xlink:href='#gpPt3' id='gpPt11' stroke='currentColor' transform='rotate(45)'/>
	<use xlink:href='#gpPt11' id='gpPt12' fill='currentColor' stroke='none'/>
	<path id='gpPt13' stroke-width='0.222' stroke='currentColor' d='M0,1.330 L1.265,0.411 L0.782,-1.067 L-0.782,-1.076 L-1.265,0.411 z'/>
	<use xlink:href='#gpPt13' id='gpPt14' fill='currentColor' stroke='none'/>
	<filter id='textbox' filterUnits='objectBoundingBox' x='0' y='0' height='1' width='1'>
	  <feFlood flood-color='#FFFFFF' flood-opacity='1' result='bgnd'/>
	  <feComposite in='SourceGraphic' in2='bgnd' operator='atop'/>
	</filter>
	<filter id='greybox' filterUnits='objectBoundingBox' x='0' y='0' height='1' width='1'>
	  <feFlood flood-color='lightgrey' flood-opacity='1' result='grey'/>
	  <feComposite in='SourceGraphic' in2='grey' operator='atop'/>
	</filter>
</defs>
<g fill="none" color="#FFFFFF" stroke="black" stroke-width="1.00" stroke-linecap="butt" stroke-linejoin="miter">
</g>
<g fill="none" color="black" stroke="currentColor" stroke-width="1.00" stroke-linecap="butt" stroke-linejoin="miter">
	<path stroke='black'  d='M70.5,425.8 L79.5,425.8 M615.0,425.8 L606.0,425.8  '/>	<g transform="translate(62.2,429.7)" stroke="none" fill="black" font-family="Arial" font-size="12.00"  text-anchor="end">
		<text><tspan font-family="Arial" > 0.966</tspan></text>
	</g>
</g>
<g fill="none" color="black" stroke="currentColor" stroke-width="1.00" stroke-linecap="butt" stroke-linejoin="miter">
	<path stroke='black'  d='M70.5,354.6 L79.5,354.6 M615.0,354.6 L606.0,354.6  '/>	<g transform="translate(62.2,358.5)" stroke="none" fill="black" font-family="Arial" font-size="12.00"  text-anchor="end">
		<text><tspan font-family="Arial" > 0.968</tspan></text>
	</g>
</g>
<g fill="none" color="black" stroke="currentColor" stroke-width="1.00" stroke-linecap="butt" stroke-linejoin="miter">
	<path stroke='black'  d='M70.5,283.4 L79.5,283.4 M615.0,283.4 L606.0,283.4  '/>	<g transform="translate(62.2,287.3)" stroke="none" fill="black" font-family="Arial" font-size="12.00"  text-anchor="end">
		<text><tspan font-family="Arial" > 0.97</tspan></text>
	</g>
</g>
<g fill="none" color="black" stroke="currentColor" stroke-width="1.00" stroke-linecap="butt" stroke-linejoin="miter">
	<path stroke='black'  d='M70.5,212.2 L79.5,212.2 M615.0,212.2 L606.0,212.2  '/>	<g transform="translate(62.2,216.1)" stroke="none" fill="black" font-family="Arial" font-size="12.00"  text-anchor="end">
		<text><tspan font-family="Arial" > 0.972</tspan></text>
	</g>
</g>
<g fill="none" color="black" stroke="currentColor" stroke-width="1.00" stroke-linecap="butt" stroke-linejoin="miter">
	<path stroke='black'  d='M70.5,141.0 L79.5,141.0 M615.0,141.0 L606.0,141.0  '/>	<g transform="translate(62.2,144.9)" stroke="none" fill="black" font-family="Arial" font-size="12.00"  text-anchor="end">
		<text><tspan font-family="Arial" > 0.974</tspan></text>
	</g>
</g>
<g fill="none" color="black" stroke="currentColor" stroke-width="1.00" stroke-linecap="butt" stroke-linejoin="miter">
	<path stroke='black'  d='M70.5,69.8 L79.5,69.8 M615.0,69.8 L606.0,69.8  '/>	<g transform="translate(62.2,73.7)" stroke="none" fill="black" font-family="Arial" font-size="12.00"  text-anchor="end">
		<text><tspan font-family="Arial" > 0.976</tspan></text>
	</g>
</g>
<g fill="none" color="black" stroke="currentColor" stroke-width="1.00" stroke-linecap="butt" stroke-linejoin="miter">
	<path stroke='black'  d='M70.5,436.0 L70.5,427.0 M70.5,18.1 L70.5,27.1  '/>	<g transform="translate(70.5,457.9)" stroke="none" fill="black" font-family="Arial" font-size="12.00"  text-anchor="middle">
		<text><tspan font-family="Arial" > 0</tspan></text>
	</g>
</g>
<g fill="none" color="black" stroke="currentColor" stroke-width="1.00" stroke-linecap="butt" stroke-linejoin="miter">
	<path stroke='black'  d='M125.5,436.0 L125.5,427.0 M125.5,18.1 L125.5,27.1  '/>	<g transform="translate(125.5,457.9)" stroke="none" fill="black" font-family="Arial" font-size="12.00"  text-anchor="middle">
		<text><tspan font-family="Arial" > 10</tspan></text>
	</g>
</g>
<g fill="none" color="black" stroke="currentColor" stroke-width="1.00" stroke-linecap="butt" stroke-linejoin="miter">
	<path stroke='black'  d='M180.5,436.0 L180.5,427.0 M180.5,18.1 L180.5,27.1  '/>	<g transform="translate(180.5,457.9)" stroke="none" fill="black" font-family="Arial" font-size="12.00"  text-anchor="middle">
		<text><tspan font-family="Arial" > 20</tspan></text>
	</g>
</g>
<g fill="none" color="black" stroke="currentColor" stroke-width="1.00" stroke-linecap="butt" stroke-linejoin="miter">
	<path stroke='black'  d='M235.5,436.0 L235.5,427.0 M235.5,18.1 L235.5,27.1  '/>	<g transform="translate(235.5,457.9)" stroke="none" fill="black" font-family="Arial" font-size="12.00"  text-anchor="middle">
		<text><tspan font-family="Arial" > 30</tspan></text>
	</g>
</g>
<g fill="none" color="black" stroke="currentColor" stroke-width="1.00" stroke-linecap="butt" stroke-linejoin="miter">
	<path stroke='black'  d='M290.5,436.0 L290.5,427.0 M290.5,18.1 L290.5,27.1  '/>	<g transform="translate(290.5,457.9)" stroke="none" fill="black" font-family="Arial" font-size="12.00"  text-anchor="middle">
		<text><tspan font-family="Arial" > 40</tspan></text>
	</g>
</g>
<g fill="none" color="black" stroke="currentColor" stroke-width="1.00" stroke-linecap="butt" stroke-linejoin="miter">
	<path stroke='black'  d='M345.5,436.0 L345.5,427.0 M345.5,18.1 L345.5,27.1  '/>	<g transform="translate(345.5,457.9)" stroke="none" fill="black" font-family="Arial" font-size="12.00"  text-anchor="middle">
		<text><tspan font-family="Arial" > 50</tspan></text>
	</g>
</g>
<g fill="none" color="black" stroke="currentColor" stroke-width="1.00" stroke-linecap="butt" stroke-linejoin="miter">
	<path stroke='black'  d='M400.5,436.0 L400.5,427.0 M400.5,18.1 L400.5,27.1  '/>	<g transform="translate(400.5,457.9)" stroke="none" fill="black" font-family="Arial" font-size="12.00"  text-anchor="middle">
		<text><tspan font-family="Arial" > 60</tspan></text>
	</g>
</g>
<g fill="none" color="black" stroke="currentColor" stroke-width="1.00" stroke-linecap="butt" stroke-linejoin="miter">
	<path stroke='black'  d='M455.5,436.0 L455.5,427.0 M455.5,18.1 L455.5,27.1  '/>	<g transform="translate(455.5,457.9)" stroke="none" fill="black" font-family="Arial" font-size="12.00"  text-anchor="middle">
		<text><tspan font-family="Arial" > 70</tspan></text>
	</g>
</g>
<g fill="none" color="black" stroke="currentColor" stroke-width="1.00" stroke-linecap="butt" stroke-linejoin="miter">
	<path stroke='black'  d='M510.5,436.0 L510.5,427.0 M510.5,18.1 L510.5,27.1  '/>	<g transform="translate(510.5,457.9)" stroke="none" fill="black" font-family="Arial" font-size="12.00"  text-anchor="middle">
		<text><tspan font-family="Arial" > 80</tspan></text>
	</g>
</g>
<g fill="none" color="black" stroke="currentColor" stroke-width="1.00" stroke-linecap="butt" stroke-linejoin="miter">
	<path stroke='black'  d='M565.5,436.0 L565.5,427.0 M565.5,18.1 L565.5,27.1  '/>	<g transform="translate(565.5,457.9)" stroke="none" fill="black" font-family="Arial" font-size="12.00"  text-anchor="middle">
		<text><tspan font-family="Arial" > 90</tspan></text>
	</g>
</g>
<g fill="none" color="black" stroke="currentColor" stroke-width="1.00" stroke-linecap="butt" stroke-linejoin="miter">
</g>
<g fill="none" color="black" stroke="currentColor" stroke-width="1.00" stroke-linecap="butt" stroke-linejoin="miter">
	<path stroke='black'  d='M70.5,18.1 L70.5,436.0 L615.0,436.0 L615.0,18.1 L70.5,18.1 Z  '/></g>
<g fill="none" color="black" stroke="currentColor" stroke-width="1.00" stroke-linecap="butt" stroke-linejoin="miter">
</g>
	<g id="gnuplot_plot_1" ><title>score</title>
<g fill="none" color="black" stroke="currentColor" stroke-width="1.00" stroke-linecap="butt" stroke-linejoin="miter">
	<g transform="translate(334.1,475.9)" stroke="none" fill="black" font-family="Arial" font-size="12.00"  text-anchor="end">
		<text><tspan font-family="Arial" >score</tspan></text>
	</g>
</g>
<g fill="none" color="black" stroke="currentColor" stroke-width="1.00" stroke-linecap="butt" stroke-linejoin="miter">
	<path stroke='rgb(148,   0, 211)'  d='M342.4,472.0 L384.6,472.0 M70.5,90.7 L76.0,69.7 L81.5,125.7 L87.0,112.7 L92.5,73.7 L98.0,121.9
		L103.5,96.2 L109.0,153.6 L114.5,119.8 L120.0,96.7 L125.5,97.3 L131.0,242.2 L136.5,395.7 L142.0,75.7
		L147.5,123.0 L153.0,108.7 L158.5,127.6 L164.0,77.2 L169.5,101.2 L175.0,362.0 L180.5,137.3 L186.0,85.7
		L191.5,73.9 L197.0,93.4 L202.5,73.4 L208.0,112.1 L213.5,126.5 L219.0,97.1 L224.5,159.0 L230.0,53.7
		L235.5,95.7 L241.0,133.8 L246.5,84.8 L252.0,86.9 L257.5,83.3 L263.0,371.2 L268.5,366.4 L274.0,123.4
		L279.5,74.1 L285.0,112.2 L290.5,129.1 L296.0,120.9 L301.5,167.0 L307.0,128.0 L312.5,112.2 L318.0,172.5
		L323.5,143.0 L329.0,151.1 L334.5,114.8 L340.0,133.8 L345.5,400.4 L351.0,116.9 L356.5,89.8 L362.0,104.9
		L367.5,99.4 L373.0,81.2 L378.5,74.9 L384.0,116.3 L389.5,133.7 L395.0,88.6 L400.5,150.5 L406.0,111.9
		L411.5,85.2 L417.0,119.2 L422.5,117.0 L428.0,80.0 L433.5,70.4 L439.0,373.8 L444.5,104.1 L450.0,184.1
		L455.5,84.5 L461.0,107.6 L466.5,114.8 L472.0,124.8 L477.5,73.9 L483.0,84.1 L488.5,63.8 L494.0,122.1
		L499.5,108.5 L505.0,114.6 L510.5,108.2 L516.0,66.3 L521.5,157.4 L527.0,145.3 L532.5,125.1 L538.0,124.3
		L543.5,101.6 L549.0,80.7 L554.5,102.4 L560.0,159.8 L565.5,155.3 L571.0,79.3 L576.5,92.3 L582.0,121.5
		L587.5,107.0 L593.0,98.7 L598.5,152.2 L604.0,98.6 L609.5,104.0 L615.0,99.6  '/></g>
	</g>
<g fill="none" color="#FFFFFF" stroke="rgb(148,   0, 211)" stroke-width="2.00" stroke-linecap="butt" stroke-linejoin="miter">
</g>
<g fill="none" color="black" stroke="currentColor" stroke-width="2.00" stroke-linecap="butt" stroke-linejoin="miter">
</g>
<g fill="none" color="black" stroke="black" stroke-width="1.00" stroke-linecap="butt" stroke-linejoin="miter">
</g>
<g fill="none" color="black" stroke="currentColor" stroke-width="1.00" stroke-linecap="butt" stroke-linejoin="miter">
	<path stroke='black'  d='M70.5,18.1 L70.5,436.0 L615.0,436.0 L615.0,18.1 L70.5,18.1 Z  '/></g>
<g fill="none" color="black" stroke="currentColor" stroke-width="1.00" stroke-linecap="butt" stroke-linejoin="miter">
</g>
</g>
</svg>
